X:3
T:The kid on the mountain
R:Hop, slip jig
M:9/8
L:1/8
K:Em
EFE FED G2F|EFE cBA BGE|EFE FED G2(G/A/)|BAG FAG FED:|
:BGB AFA G2D|GAB dfe dBA|BGB AFA G2A|BAG FAG FED:|
:gfe efe e2(e/f/)|gfg efg afd|gfe efe e2(g/a/)|bag fag fed:|
|:eBB e2f g2f|eBB efg afd|eBB e2f g2(g/a/)|bag fag fed:|
:eBe dBA G2A|Bee dBA BGE|eBe dBA G2A|BAG FAG FED:|
